X: 3291
T: LIFE LET US CHERISH
%R: jig
B: James Kerr "Merry Melodies" v.3 p.32 #291
Z: 2016 John Chambers <jc:trillian.mit.edu>
M: 6/8
L: 1/8
K: G
|:\
B3  cBc | d2g g3  | G3  AGA | BcB A3 |\
B3  cBc | d2g g3  | B2B AGA | G3- G2B :|
d2c ABc | d2B G2B | dcB ABc | d2B g2d |\
e2c g2e | d2B g2d | ded dcB | B3  A3 |]

%%sep 1 1 500
%%sep 1 1 500

